X:1
T:Title
L:1/8
M:6/8
K:Eb
V:1 treble nm="Grand Piano"
V:1
 z3[Q:1/4=140] C2 D | E6- | E2 G E2 C | D6- | D2 F D2 =B, | D3 C3- | C3 C2 D | E6- | E2 G F2 G | %9
 A6- | A2 c =B2 c | d3 G3- | G3 G2 G | e6- | e2 d c2 =B | c6- | c2 B =A2 G | B3 A3- | A3 F2 F | %19
 d6- | d2 c =B2 A | G6- | G3 F2 G | A6- | A2 G F2 E | D6- | D3 E2 F | G3- G2 C | E3- E2 D | C6- | %30
 C3 z3 |] %31

